src/actions/16/text_outer_style.svg

<svg width="28" height="28" version="1.1" xmlns="http://www.w3.org/2000/svg">
 <rect id="text_outer_style_rect" width="28" height="28" fill="none"/>
 <g id="BigT" fill="#363636">
  <path d="m2.2812 2.4199h13.438v2.8418h-4.834v11.738h-3.7598v-11.738h-4.8438z" color="#000000" opacity=".35" stroke-width=".75" style="-inkscape-stroke:none"/>
  <path d="m1.9062 2.0449v3.5918h4.8438v11.738h4.5098v-11.738h4.834v-3.5918zm0.75 0.75h12.688v2.0918h-4.834v11.738h-3.0098v-11.738h-4.8438z" color="#000000" style="-inkscape-stroke:none"/>
 </g>
 <g id="LittleT" fill="#363636">
  <path d="m13.969 13.252h8.0625v1.7051h-2.9004v7.043h-2.2559v-7.043h-2.9062z" color="#000000" opacity=".35" stroke-width=".75" style="-inkscape-stroke:none"/>
  <path d="m13.594 12.877v2.4551h2.9062v7.043h3.0059v-7.043h2.9004v-2.4551zm0.75 0.75h7.3125v0.95508h-2.9004v7.043h-1.5059v-7.043h-2.9062z" color="#000000" style="-inkscape-stroke:none"/>
 </g>
 <path d="m20 1.25a0.75 0.75 0 0 0-0.75 0.75 0.75 0.75 0 0 0 0.75 0.75h5.25v22.5h-22.5v-15.25a0.75 0.75 0 0 0-0.75-0.75 0.75 0.75 0 0 0-0.75 0.75v16a0.75008 0.75008 0 0 0 0.75 0.75h24a0.75008 0.75008 0 0 0 0.75-0.75v-24a0.75008 0.75008 0 0 0-0.75-0.75z" color="#000000" fill="#363636" stroke-linecap="round" stroke-linejoin="round" style="-inkscape-stroke:none"/>
</svg>

<svg xmlns="http://www.w3.org/2000/svg" width="28" height="28">
    <path fill="none" d="M0 0h28v28H0z"/>
    <g fill="#050505" color="#000" opacity=".7">
        <path d="M2.281 2.42H15.72v2.842h-4.834V17h-3.76V5.262H2.282z" opacity=".35" style="-inkscape-stroke:none"/>
        <path d="M1.906 2.045v3.592H6.75v11.738h4.51V5.637h4.834V2.045zm.75.75h12.688v2.092H10.51v11.738H7.5V4.887H2.657z" style="-inkscape-stroke:none"/>
    </g>
    <g fill="#050505" color="#000" opacity=".7">
        <path d="M13.969 13.252h8.063v1.705h-2.9V22h-2.257v-7.043H13.97z" opacity=".35" style="-inkscape-stroke:none"/>
        <path d="M13.594 12.877v2.455H16.5v7.043h3.006v-7.043h2.9v-2.455zm.75.75h7.313v.955h-2.9v7.043H17.25v-7.043h-2.906z" style="-inkscape-stroke:none"/>
    </g>
    <path fill="#050505" fill-opacity=".7" d="M20 1.25a.75.75 0 0 0-.75.75.75.75 0 0 0 .75.75h5.25v22.5H2.75V10A.75.75 0 0 0 2 9.25a.75.75 0 0 0-.75.75v16a.75.75 0 0 0 .75.75h24a.75.75 0 0 0 .75-.75V2a.75.75 0 0 0-.75-.75z" color="#000" style="-inkscape-stroke:none"/>
</svg>
